svgs/lolisnatcher.svg

<svg xmlns="http://www.w3.org/2000/svg" viewBox="0 0 192 192"><path d="M28.492 175.502a3.223 3.223 0 0 1-1.239-1.349c-.406-.84-.413-1.074-.411-14.019.004-20.632.696-38.685 2.187-57.059 1.16-14.288 1.917-19.579 3.983-27.824 2.424-9.671 6.358-19.69 10.667-27.167 9.147-15.872 22.075-26.333 37.35-30.223 11.348-2.889 23.43-2.404 34.49 1.384 4.807 1.646 11.64 5.41 15.655 8.624 10.096 8.081 17.537 18.702 23.186 33.096 3.521 8.971 6.131 19.183 7.216 28.238 1.137 9.485 2.252 24.272 2.885 38.246.517 11.449.695 19.891.697 33.081.001 12.56-.005 12.783-.414 13.627a3.1 3.1 0 0 1-1.256 1.35l-.841.493-19.303-.001c-19.138-.001-19.31-.004-19.973-.408-1.392-.849-12.644-9.499-13.428-10.322-1.128-1.187-1.769-2.281-2.351-4.014-.49-1.459-.495-1.552-.495-8.228 0-4.685-.065-6.752-.213-6.752-.118 0-.809.346-1.536.769-2.198 1.278-4.858 2.553-6.3 3.018-1.861.601-4.236.602-6.096.001-1.485-.48-4.633-2.006-6.588-3.194-.681-.413-1.288-.701-1.35-.64-.061.062-.112 3.136-.112 6.831 0 6.641-.006 6.737-.495 8.195-.581 1.73-1.221 2.824-2.351 4.018-.946.999-13.167 10.251-13.918 10.536-.309.118-7.865.19-19.662.189l-19.159-.002-.825-.494Zm42.52-10.586c5.544-4.154 6.205-4.722 6.546-5.624.137-.365.208-3.595.204-9.314l-.006-8.756-2.01-1.387c-3.899-2.69-9.047-6.611-10.22-7.784-1.586-1.586-2.649-3.193-4.014-6.071-5.786-12.199-9.256-27.456-9.086-39.947.025-1.799-.018-3.46-.094-3.692-.168-.511.451-4.118 1.355-7.901 1.202-5.031 3.35-10.961 5.591-15.44 1.078-2.154 3.248-5.912 3.354-5.806.041.041-.15.735-.424 1.542-1.113 3.272-2.199 8.597-2.706 13.264-.241 2.226-.346 12.565-.129 12.782.06.061 1.838-.112 3.951-.384 14.588-1.873 26.371-2.724 35.281-2.548l4.686.093.143-.847c.245-1.453.399-8.249.264-11.672-.235-5.945-1.544-13.516-3.133-18.116-.223-.644-.37-1.206-.328-1.248.099-.1 1.173 1.837 2.584 4.661 2.674 5.351 4.835 11.597 6.252 18.071.507 2.313 1.393 8.043 1.393 9.004 0 .502.087.707.303.707.389 0 5.909.554 6.86.688l.723.102.216-1.24c.802-4.608.557-13.681-.483-17.881-.21-.847 2.782 5.267 3.587 7.33 1.102 2.825 2.135 6.408 2.665 9.241.606 3.24.605 3.236 1.292 3.305.325.032 2.999.371 5.941.752 6.09.79 6.74.993 7.533 2.346.461.787.493 1.018.493 3.608 0 11.157-2.967 25.002-7.757 36.205-2.257 5.275-3.37 7.135-5.537 9.246-1.186 1.157-6.869 5.452-10.628 8.034l-1.431.983-.006 8.756c-.004 5.72.067 8.949.205 9.314.341.902 1.002 1.47 6.546 5.624l5.27 3.95h31.78l-.042-7.778c-.137-25.443-1.371-51.062-3.35-69.543-1.305-12.181-4.901-24.598-10.291-35.534-9.342-18.954-22.391-29.596-39.75-32.418-3.646-.593-11.027-.741-14.848-.299-12.035 1.394-21.34 5.986-29.838 14.723-7.214 7.419-13.022 17.475-17.327 30-2.782 8.096-4.445 15.599-5.336 24.083-1.938 18.448-3.112 43.274-3.253 68.79l-.044 7.976h31.783Zm26.478-22.011c3.512-1.209 10.964-5.964 19.987-12.757 4.774-3.593 5.257-4.175 7.173-8.644 3.836-8.948 6.495-19.971 7.241-30.015.133-1.801.205-3.31.159-3.354-.233-.222-13.343-1.777-20.098-2.384-13.514-1.213-23.278-1.02-39.732.789-5.11.562-12.147 1.477-12.272 1.595-.128.123.359 6.234.693 8.698 1.252 9.227 4.026 19.033 7.49 26.468 1.3 2.791 2.053 3.586 6.692 7.068 8.902 6.681 16.102 11.27 19.69 12.551 1.292.461 1.597.46 2.977-.015Zm-3.408-7.208c-1.896-.62-3.482-2.121-4.49-4.249-.531-1.12-.627-1.552-.627-2.81 0-1.22.079-1.597.442-2.105.836-1.173 1.295-1.263 6.411-1.263 4.273 0 4.677.03 5.468.413 1.345.651 1.748 1.38 1.748 3.158 0 1.275-.091 1.675-.632 2.774-.904 1.837-1.846 2.847-3.345 3.585-1.511.743-3.587.951-4.975.497Zm-24.396-23.259c-2.07-4.401-2.709-6.669-2.693-9.561.04-6.877 3.765-10.872 9.745-10.451 4.977.351 7.845 3.773 8.112 9.68.154 3.391-.576 6.213-2.698 10.434l-.821 1.632H70.502Zm11.248-6.117c.998-.958.419-2.847-.952-3.109-.672-.128-1.721.304-2 .824-.274.513-.274 1.528 0 2.041.279.521 1.338.966 1.966.826.273-.061.716-.322.986-.582Zm-5.151-3.442c2.137-1.09 2.673-3.975 1.069-5.75-1.739-1.925-4.979-1.459-6.037.87-1.458 3.21 1.857 6.467 4.968 4.88Zm33.888 9.262a48.893 48.893 0 0 1-1.722-4.211c-.739-2.14-.753-2.232-.745-5.053.007-2.614.056-3.015.552-4.437 1.335-3.827 3.732-5.748 7.506-6.014 4.823-.34 8.289 2.223 9.36 6.921.932 4.088.37 7.474-2.11 12.695l-1.011 2.13h-10.862Zm10.794-5.409c1.102-.523 1.459-2.006.683-2.839-.538-.577-1.272-.85-1.878-.698-.664.167-1.472 1.182-1.472 1.85 0 .854.994 1.917 1.852 1.981.093.007.46-.126.815-.294Zm-4.788-3.727c.858-.358 1.849-1.521 2.148-2.52.288-.962.016-2.29-.643-3.133-1.178-1.509-3.331-1.875-4.958-.843-1.371.869-2.043 2.626-1.562 4.085.303.915 1.293 2.061 2.079 2.403.782.341 2.132.345 2.936.008Z"/></svg>

<svg
    xmlns="http://www.w3.org/2000/svg"
    viewBox="0 0 192 192"
    id="vector">
    <path
        id="path"
        d="M 28.492 175.502 C 27.956 175.18 27.522 174.708 27.253 174.153 C 26.847 173.313 26.84 173.079 26.842 160.134 C 26.846 139.502 27.538 121.449 29.029 103.075 C 30.189 88.787 30.946 83.496 33.012 75.251 C 35.436 65.58 39.37 55.561 43.679 48.084 C 52.826 32.212 65.754 21.751 81.029 17.861 C 92.377 14.972 104.459 15.457 115.519 19.245 C 120.326 20.891 127.159 24.655 131.174 27.869 C 141.27 35.95 148.711 46.571 154.36 60.965 C 157.881 69.936 160.491 80.148 161.576 89.203 C 162.713 98.688 163.828 113.475 164.461 127.449 C 164.978 138.898 165.156 147.34 165.158 160.53 C 165.159 173.09 165.153 173.313 164.744 174.157 C 164.467 174.729 164.049 175.179 163.488 175.507 L 162.647 176 L 143.344 175.999 C 124.206 175.998 124.034 175.995 123.371 175.591 C 121.979 174.742 110.727 166.092 109.943 165.269 C 108.815 164.082 108.174 162.988 107.592 161.255 C 107.102 159.796 107.097 159.703 107.097 153.027 C 107.097 148.342 107.032 146.275 106.884 146.275 C 106.766 146.275 106.075 146.621 105.348 147.044 C 103.15 148.322 100.49 149.597 99.048 150.062 C 97.187 150.663 94.812 150.664 92.952 150.063 C 91.467 149.583 88.319 148.057 86.364 146.869 C 85.683 146.456 85.076 146.168 85.014 146.229 C 84.953 146.291 84.902 149.365 84.902 153.06 C 84.902 159.701 84.896 159.797 84.407 161.255 C 83.826 162.985 83.186 164.079 82.056 165.273 C 81.11 166.272 68.889 175.524 68.138 175.809 C 67.829 175.927 60.273 175.999 48.476 175.998 L 29.317 175.996 L 28.492 175.502 Z M 71.012 164.916 C 76.556 160.762 77.217 160.194 77.558 159.292 C 77.695 158.927 77.766 155.697 77.762 149.978 L 77.756 141.222 L 75.746 139.835 C 71.847 137.145 66.699 133.224 65.526 132.051 C 63.94 130.465 62.877 128.858 61.512 125.98 C 55.726 113.781 52.256 98.524 52.426 86.033 C 52.451 84.234 52.408 82.573 52.332 82.341 C 52.164 81.83 52.783 78.223 53.687 74.44 C 54.889 69.409 57.037 63.479 59.278 59 C 60.356 56.846 62.526 53.088 62.632 53.194 C 62.673 53.235 62.482 53.929 62.208 54.736 C 61.095 58.008 60.009 63.333 59.502 68 C 59.261 70.226 59.156 80.565 59.373 80.782 C 59.433 80.843 61.211 80.67 63.324 80.398 C 77.912 78.525 89.695 77.674 98.605 77.85 L 103.291 77.943 L 103.434 77.096 C 103.679 75.643 103.833 68.847 103.698 65.424 C 103.463 59.479 102.154 51.908 100.565 47.308 C 100.342 46.664 100.195 46.102 100.237 46.06 C 100.336 45.96 101.41 47.897 102.821 50.721 C 105.495 56.072 107.656 62.318 109.073 68.792 C 109.58 71.105 110.466 76.835 110.466 77.796 C 110.466 78.298 110.553 78.503 110.769 78.503 C 111.158 78.503 116.678 79.057 117.629 79.191 L 118.352 79.293 L 118.568 78.053 C 119.37 73.445 119.125 64.372 118.085 60.172 C 117.875 59.325 120.867 65.439 121.672 67.502 C 122.774 70.327 123.807 73.91 124.337 76.743 C 124.943 79.983 124.942 79.979 125.629 80.048 C 125.954 80.08 128.628 80.419 131.57 80.8 C 137.66 81.59 138.31 81.793 139.103 83.146 C 139.564 83.933 139.596 84.164 139.596 86.754 C 139.596 97.911 136.629 111.756 131.839 122.959 C 129.582 128.234 128.469 130.094 126.302 132.205 C 125.116 133.362 119.433 137.657 115.674 140.239 L 114.243 141.222 L 114.237 149.978 C 114.233 155.698 114.304 158.927 114.442 159.292 C 114.783 160.194 115.444 160.762 120.988 164.916 L 126.258 168.866 L 158.038 168.866 L 157.996 161.088 C 157.859 135.645 156.625 110.026 154.646 91.545 C 153.341 79.364 149.745 66.947 144.355 56.011 C 135.013 37.057 121.964 26.415 104.605 23.593 C 100.959 23 93.578 22.852 89.757 23.294 C 77.722 24.688 68.417 29.28 59.919 38.017 C 52.705 45.436 46.897 55.492 42.592 68.017 C 39.81 76.113 38.147 83.616 37.256 92.1 C 35.318 110.548 34.144 135.374 34.003 160.89 L 33.959 168.866 L 65.742 168.866 Z M 97.49 142.905 C 101.002 141.696 108.454 136.941 117.477 130.148 C 122.251 126.555 122.734 125.973 124.65 121.504 C 128.486 112.556 131.145 101.533 131.891 91.489 C 132.024 89.688 132.096 88.179 132.05 88.135 C 131.817 87.913 118.707 86.358 111.952 85.751 C 98.438 84.538 88.674 84.731 72.22 86.54 C 67.11 87.102 60.073 88.017 59.948 88.135 C 59.82 88.258 60.307 94.369 60.641 96.833 C 61.893 106.06 64.667 115.866 68.131 123.301 C 69.431 126.092 70.184 126.887 74.823 130.369 C 83.725 137.05 90.925 141.639 94.513 142.92 C 95.805 143.381 96.11 143.38 97.49 142.905 Z M 94.082 135.697 C 92.186 135.077 90.6 133.576 89.592 131.448 C 89.061 130.328 88.965 129.896 88.965 128.638 C 88.965 127.418 89.044 127.041 89.407 126.533 C 90.243 125.36 90.702 125.27 95.818 125.27 C 100.091 125.27 100.495 125.3 101.286 125.683 C 102.631 126.334 103.034 127.063 103.034 128.841 C 103.034 130.116 102.943 130.516 102.402 131.615 C 101.498 133.452 100.556 134.462 99.057 135.2 C 97.546 135.943 95.47 136.151 94.082 135.697 Z M 69.686 112.438 C 67.616 108.037 66.977 105.769 66.993 102.877 C 67.033 96 70.758 92.005 76.738 92.426 C 81.715 92.777 84.583 96.199 84.85 102.106 C 85.004 105.497 84.274 108.319 82.152 112.54 L 81.331 114.172 L 70.502 114.172 Z M 80.934 106.321 C 81.932 105.363 81.353 103.474 79.982 103.212 C 79.31 103.084 78.261 103.516 77.982 104.036 C 77.708 104.549 77.708 105.564 77.982 106.077 C 78.261 106.598 79.32 107.043 79.948 106.903 C 80.221 106.842 80.664 106.581 80.934 106.321 Z M 75.783 102.879 C 77.92 101.789 78.456 98.904 76.852 97.129 C 75.113 95.204 71.873 95.67 70.815 97.999 C 69.357 101.209 72.672 104.466 75.783 102.879 Z M 109.671 112.141 C 109.138 111.024 108.363 109.129 107.949 107.93 C 107.21 105.79 107.196 105.698 107.204 102.877 C 107.211 100.263 107.26 99.862 107.756 98.44 C 109.091 94.613 111.488 92.692 115.262 92.426 C 120.085 92.086 123.551 94.649 124.622 99.347 C 125.554 103.435 124.992 106.821 122.512 112.042 L 121.501 114.172 L 110.639 114.172 Z M 120.465 106.732 C 121.567 106.209 121.924 104.726 121.148 103.893 C 120.61 103.316 119.876 103.043 119.27 103.195 C 118.606 103.362 117.798 104.377 117.798 105.045 C 117.798 105.899 118.792 106.962 119.65 107.026 C 119.743 107.033 120.11 106.9 120.465 106.732 Z M 115.677 103.005 C 116.535 102.647 117.526 101.484 117.825 100.485 C 118.113 99.523 117.841 98.195 117.182 97.352 C 116.004 95.843 113.851 95.477 112.224 96.509 C 110.853 97.378 110.181 99.135 110.662 100.594 C 110.965 101.509 111.955 102.655 112.741 102.997 C 113.523 103.338 114.873 103.342 115.677 103.005 Z"
        fill="#000000"
        stroke-width="12"/>
</svg>
